static/img/kroki/6a9d428e1454bc2afe8a301cddc62f0f.svg

<?xml version="1.0" encoding="us-ascii" standalone="no"?><svg xmlns="http://www.w3.org/2000/svg" xmlns:xlink="http://www.w3.org/1999/xlink" contentStyleType="text/css" height="152px" preserveAspectRatio="none" style="width:370px;height:152px;" version="1.1" viewBox="0 0 370 152" width="370px" zoomAndPan="magnify"><defs/><g><!--class azure_machine_learning_labeling_job--><g id="elem_azure_machine_learning_labeling_job"><rect codeLine="23" fill="#3D176E" height="39.7891" id="azure_machine_learning_labeling_job" rx="2.5" ry="2.5" style="stroke:#000D19;stroke-width:0.5;" width="356" x="7" y="106.79"/><ellipse cx="22" cy="126.6845" fill="#ADD1B2" rx="11" ry="11" style="stroke:#181818;stroke-width:1.0;"/><path d="M24.9688,132.3252 Q24.3906,132.622 23.75,132.7627 Q23.1094,132.9189 22.4063,132.9189 Q19.9063,132.9189 18.5781,131.2783 Q17.2656,129.622 17.2656,126.497 Q17.2656,123.372 18.5781,121.7158 Q19.9063,120.0595 22.4063,120.0595 Q23.1094,120.0595 23.75,120.2158 Q24.4063,120.372 24.9688,120.6689 L24.9688,123.3877 Q24.3438,122.8095 23.75,122.5439 Q23.1563,122.2627 22.5313,122.2627 Q21.1875,122.2627 20.5,123.3408 Q19.8125,124.4033 19.8125,126.497 Q19.8125,128.5908 20.5,129.6689 Q21.1875,130.7314 22.5313,130.7314 Q23.1563,130.7314 23.75,130.4658 Q24.3438,130.1845 24.9688,129.6064 L24.9688,132.3252 Z " fill="#000000"/><text fill="#D9B8FF" font-family="Helvetica" font-size="17" lengthAdjust="spacing" textLength="314" x="41" y="132.5698">azure_machine_learning_labeling_job</text></g><!--class azure_machine_learning_workspace--><g id="elem_azure_machine_learning_workspace"><rect codeLine="26" fill="#3D176E" height="39.7891" id="azure_machine_learning_workspace" rx="2.5" ry="2.5" style="stroke:#000D19;stroke-width:0.5;" width="344" x="13" y="7"/><ellipse cx="28" cy="26.8945" fill="#ADD1B2" rx="11" ry="11" style="stroke:#181818;stroke-width:1.0;"/><path d="M30.9688,32.5352 Q30.3906,32.832 29.75,32.9727 Q29.1094,33.1289 28.4063,33.1289 Q25.9063,33.1289 24.5781,31.4883 Q23.2656,29.832 23.2656,26.707 Q23.2656,23.582 24.5781,21.9258 Q25.9063,20.2695 28.4063,20.2695 Q29.1094,20.2695 29.75,20.4258 Q30.4063,20.582 30.9688,20.8789 L30.9688,23.5977 Q30.3438,23.0195 29.75,22.7539 Q29.1563,22.4727 28.5313,22.4727 Q27.1875,22.4727 26.5,23.5508 Q25.8125,24.6133 25.8125,26.707 Q25.8125,28.8008 26.5,29.8789 Q27.1875,30.9414 28.5313,30.9414 Q29.1563,30.9414 29.75,30.6758 Q30.3438,30.3945 30.9688,29.8164 L30.9688,32.5352 Z " fill="#000000"/><text fill="#D9B8FF" font-family="Helvetica" font-size="17" lengthAdjust="spacing" textLength="302" x="47" y="32.7798">azure_machine_learning_workspace</text></g><!--link azure_machine_learning_workspace to azure_machine_learning_labeling_job--><g id="link_azure_machine_learning_workspace_azure_machine_learning_labeling_job"><path codeLine="29" d="M185,47.22 C185,64.36 185,83.27 185,100.41 " fill="none" id="azure_machine_learning_workspace-to-azure_machine_learning_labeling_job" style="stroke:#1A83AF;stroke-width:2.0;"/><polygon fill="#1A83AF" points="185,106.41,189,97.41,185,101.41,181,97.41,185,106.41" style="stroke:#1A83AF;stroke-width:2.0;"/></g><!--SRC=[ZT9HIyCm40VmztwAG9y7hKNNlGYrCFHbYFDDP5oRongR9kMIEJRnkxjQbTYwpRUG-v7xtv5AScJOj6x76cmA91lOMkeM21gM4PbjRfGX5We18faEYtEZtLcmW0RPBQfNTBA4eNYiP5bhj9PTUAKRAEircOtc_VEEGDj32RNpLAx0simvaiN6eHU6pufKYA4SFXecF9vUuOWPuaXV98eY7i-6v6ohatF_YANS8ulzfIsCmr7CKOjFTJ9b9xoGeq6_wqSptWFdKg_PfNVtq6SYZVJhVba1DzjE2r3MRsCT4XgtQp4VJOMpb8lfd_Zk60xARdKCzXl2LGDb9JMk50BfG_ULWW9LTtWn1NiBWlVJV6keFlof4djxLasUmZXBasp-FBd-JuJW0m00]--></g></svg>

<svg xmlns="http://www.w3.org/2000/svg" width="370" height="152" viewBox="0 0 370 152"><rect width="356" height="39.789" x="7" y="106.79" fill="#3D176E" rx="2.5" ry="2.5" style="stroke:#000d19;stroke-width:.5"/><circle cx="22" cy="126.684" r="11" fill="#ADD1B2" style="stroke:#181818;stroke-width:1"/><path d="M24.969 132.325q-.578.297-1.219.438-.64.156-1.344.156-2.5 0-3.828-1.64-1.312-1.657-1.312-4.782t1.312-4.781q1.328-1.656 3.828-1.656.703 0 1.344.156.656.156 1.219.453v2.719q-.625-.579-1.219-.844-.594-.281-1.219-.281-1.343 0-2.031 1.078-.687 1.062-.687 3.156t.687 3.172q.688 1.062 2.031 1.062.625 0 1.219-.265.594-.281 1.219-.86z"/><text x="41" y="132.57" fill="#D9B8FF" font-family="Helvetica" font-size="17" textLength="314">azure_machine_learning_labeling_job</text><rect width="344" height="39.789" x="13" y="7" fill="#3D176E" rx="2.5" ry="2.5" style="stroke:#000d19;stroke-width:.5"/><circle cx="28" cy="26.895" r="11" fill="#ADD1B2" style="stroke:#181818;stroke-width:1"/><path d="M30.969 32.535q-.578.297-1.219.438-.64.156-1.344.156-2.5 0-3.828-1.64-1.312-1.657-1.312-4.782t1.312-4.781q1.328-1.656 3.828-1.656.703 0 1.344.156.656.156 1.219.453v2.719q-.625-.578-1.219-.844-.594-.281-1.219-.281-1.343 0-2.031 1.078-.687 1.062-.687 3.156t.687 3.172q.688 1.062 2.031 1.062.625 0 1.219-.265.594-.281 1.219-.86z"/><text x="47" y="32.78" fill="#D9B8FF" font-family="Helvetica" font-size="17" textLength="302">azure_machine_learning_workspace</text><path fill="none" d="M185 47.22v53.19" style="stroke:#1a83af;stroke-width:2"/><path fill="#1A83AF" d="m185 106.41 4-9-4 4-4-4z" style="stroke:#1a83af;stroke-width:2"/></svg>
